X:1
T:Title
%%score 1 2 3
L:1/8
Q:1/4=120
M:3/2
K:Bb
V:1 treble nm="Grand Piano"
V:2 bass nm="Grand Piano, Melody"
V:3 bass nm="Grand Piano"
V:1
 z4 z4 B3 B | B6 A2 B2 B2 | A8 A3 B | c6 c2 B2 A2 | B8 B3 B | B6 B2 B2 B2 | B4 d4 B3 B | %7
 B6 e2 d2 c2 | B12 |] %9
V:2
 z4 z4 F,3 B, | D6 C2 B,2[K:treble] D2 | C8 C3 D | E6 E2 D2 C2 | D8[K:bass] B,3 A, | %5
 G,6 G,2 B,2 G,2 | F,4 B,4 D3 B, | G,6 C2 B,2 A,2 | B,12 |] %9
V:3
 z4 z4 B,,3 B,, | B,,6 C,2 D,2 B,,2 | F,8 F,3 F, | F,6 F,2 F,2 F,2 | B,,8 B,,3 D, | %5
 E,6 E,2 E,2 E,2 | B,,8 B,,3 D, | E,6 C,2 F,2 F,2 | B,,12 |] %9

